images/icons/client-1.svg

<svg viewBox="0 0 106 60" fill="none" xmlns="http://www.w3.org/2000/svg">
<path fill-rule="evenodd" clip-rule="evenodd" d="M38 7L45.0078 13.6341L32 13.6265V45.8137H66V33.507L73 40.1338V7H38ZM65.6924 32.7283L45.8226 13.918H65.6924V32.7283ZM59.5231 41.1055H37.3801V19.4579H38.9453V39.6397H59.5231V41.1055ZM42.6089 50.0991L41.791 51.7837L40.9731 50.0991H40.2871L41.481 52.3452V53.6538H42.1011V52.3452L43.2925 50.0991H42.6089ZM43.6367 53.6538L43.9248 52.8262H45.3018L45.5923 53.6538H46.2368L44.8916 50.0991H44.3374L42.9946 53.6538H43.6367ZM44.6133 50.8535L45.1284 52.3281H44.0981L44.6133 50.8535ZM47.8701 52.2427C47.7806 52.3794 47.7358 52.5299 47.7358 52.6943C47.7358 52.9938 47.8408 53.2371 48.0508 53.4243C48.2624 53.6099 48.5439 53.7026 48.8955 53.7026C49.2471 53.7026 49.5498 53.6074 49.8037 53.417L50.0039 53.6538H50.6924L50.1699 53.0361C50.375 52.7562 50.4775 52.3973 50.4775 51.9595H49.9624C49.9624 52.1987 49.9128 52.416 49.8135 52.6113L49.1274 51.8008L49.3691 51.625C49.54 51.5013 49.6629 51.3776 49.7378 51.2539C49.8127 51.1286 49.8501 50.9919 49.8501 50.8438C49.8501 50.6191 49.7671 50.4312 49.6011 50.2798C49.4367 50.1268 49.2251 50.0503 48.9663 50.0503C48.6798 50.0503 48.452 50.1317 48.2827 50.2944C48.1134 50.4556 48.0288 50.6753 48.0288 50.9536C48.0288 51.0675 48.0557 51.1855 48.1094 51.3076C48.1647 51.4297 48.2616 51.5778 48.3999 51.752C48.1362 51.9408 47.9596 52.1043 47.8701 52.2427ZM49.4741 53.0288C49.3 53.1623 49.1128 53.229 48.9126 53.229C48.7352 53.229 48.5936 53.1777 48.4878 53.0752C48.382 52.9727 48.3291 52.8392 48.3291 52.6748C48.3291 52.4844 48.4268 52.3151 48.6221 52.167L48.6978 52.1133L49.4741 53.0288ZM48.8369 51.4541C48.6693 51.2474 48.5854 51.0757 48.5854 50.939C48.5854 50.8201 48.6196 50.7217 48.688 50.6436C48.7563 50.5654 48.8483 50.5264 48.9639 50.5264C49.0713 50.5264 49.16 50.5597 49.23 50.6265C49.3 50.6916 49.335 50.7705 49.335 50.8633C49.335 51.0033 49.2845 51.118 49.1836 51.2075L49.1079 51.2686L48.8369 51.4541ZM54.623 53.3853C54.8672 53.172 55.0072 52.8758 55.043 52.4966H54.4277C54.3952 52.7505 54.3179 52.932 54.1958 53.041C54.0737 53.1501 53.8914 53.2046 53.6489 53.2046C53.3836 53.2046 53.1818 53.1037 53.0435 52.9019C52.9067 52.7 52.8384 52.4071 52.8384 52.0229V51.708C52.8416 51.3288 52.9149 51.0415 53.0581 50.8462C53.203 50.6493 53.4097 50.5508 53.6782 50.5508C53.9093 50.5508 54.0843 50.6077 54.2031 50.7217C54.3236 50.834 54.3984 51.0179 54.4277 51.2734H55.043C55.0039 50.8844 54.8647 50.5833 54.6255 50.3701C54.3862 50.1569 54.0705 50.0503 53.6782 50.0503C53.3869 50.0503 53.1297 50.1195 52.9067 50.2578C52.6854 50.3962 52.5153 50.5931 52.3965 50.8486C52.2777 51.1042 52.2183 51.3996 52.2183 51.7349V52.0669C52.2231 52.394 52.2842 52.6813 52.4014 52.9287C52.5186 53.1761 52.6846 53.3674 52.8994 53.5024C53.1159 53.6359 53.3657 53.7026 53.6489 53.7026C54.0542 53.7026 54.3789 53.5968 54.623 53.3853ZM58.2534 52.8872C58.3739 52.6235 58.4341 52.3175 58.4341 51.9692V51.7715C58.4325 51.4248 58.3706 51.1213 58.2485 50.8608C58.1265 50.5988 57.9531 50.3986 57.7285 50.2603C57.5055 50.1203 57.2492 50.0503 56.9595 50.0503C56.6698 50.0503 56.4126 50.1211 56.188 50.2627C55.965 50.4027 55.7917 50.6053 55.668 50.8706C55.5459 51.1359 55.4849 51.4419 55.4849 51.7886V51.9888C55.4865 52.3289 55.5483 52.6292 55.6704 52.8896C55.7941 53.1501 55.9683 53.3511 56.1929 53.4927C56.4191 53.6326 56.6763 53.7026 56.9644 53.7026C57.2557 53.7026 57.5129 53.6326 57.7358 53.4927C57.9604 53.3511 58.133 53.1493 58.2534 52.8872ZM57.5918 50.8779C57.7415 51.0879 57.8164 51.3898 57.8164 51.7837V51.9692C57.8164 52.3696 57.7423 52.674 57.5942 52.8823C57.4478 53.0907 57.2378 53.1948 56.9644 53.1948C56.6942 53.1948 56.4826 53.0882 56.3296 52.875C56.1782 52.6618 56.1025 52.3599 56.1025 51.9692V51.7642C56.1058 51.3817 56.1823 51.0863 56.332 50.8779C56.4834 50.668 56.6925 50.563 56.9595 50.563C57.2329 50.563 57.4437 50.668 57.5918 50.8779Z" fill="#AFB1B8"/>
</svg>

<svg width="106" height="60" fill="none" xmlns="http://www.w3.org/2000/svg"><path fill-rule="evenodd" clip-rule="evenodd" d="m38 7 7.008 6.634L32 13.626v32.188h34V33.507l7 6.627V7H38Zm27.692 25.728-19.87-18.81h19.87v18.81Zm-6.169 8.377H37.38V19.459h1.565V39.64h20.578v1.465ZM42.61 50.1l-.818 1.685-.818-1.685h-.686l1.194 2.246v1.309h.62v-1.309l1.191-2.246h-.683Zm1.028 3.555.288-.828h1.377l.29.828h.645l-1.345-3.555h-.555l-1.342 3.555h.642Zm.976-2.8.515 1.474h-1.03l.515-1.475Zm3.257 1.389a.807.807 0 0 0-.134.451c0 .3.105.543.315.73.211.186.493.279.844.279.352 0 .655-.096.909-.286l.2.237h.688l-.522-.618c.205-.28.307-.639.307-1.077h-.515c0 .24-.05.457-.149.652l-.686-.81.242-.176a1.34 1.34 0 0 0 .369-.371.785.785 0 0 0 .112-.41.732.732 0 0 0-.249-.564.895.895 0 0 0-.635-.23c-.286 0-.514.082-.683.244-.17.162-.254.381-.254.66 0 .114.027.231.08.354.056.122.153.27.29.444-.263.189-.44.352-.529.49Zm1.604.786a.905.905 0 0 1-.561.2.585.585 0 0 1-.425-.154.533.533 0 0 1-.159-.4c0-.19.098-.36.293-.508l.076-.054.776.916Zm-.637-1.575c-.168-.207-.252-.378-.252-.515 0-.119.035-.217.103-.295a.348.348 0 0 1 .276-.118.37.37 0 0 1 .266.1c.07.066.105.145.105.237a.44.44 0 0 1-.151.345l-.076.06-.271.186Zm5.786 1.931c.244-.213.384-.51.42-.888h-.615c-.033.254-.11.435-.232.544-.122.11-.305.164-.547.164-.265 0-.467-.101-.605-.303-.137-.202-.206-.495-.206-.88v-.314c.004-.38.077-.666.22-.862.145-.197.352-.295.62-.295.231 0 .406.057.525.17.12.113.195.297.225.552h.615c-.04-.389-.178-.69-.417-.903-.24-.213-.555-.32-.948-.32-.291 0-.548.07-.771.208a1.346 1.346 0 0 0-.51.59 2.082 2.082 0 0 0-.179.887v.332c.005.327.066.614.183.862.118.247.284.438.498.573.217.134.467.2.75.2.405 0 .73-.105.974-.317Zm3.63-.498c.12-.264.181-.57.181-.918v-.197a2.149 2.149 0 0 0-.185-.911 1.356 1.356 0 0 0-.52-.6c-.224-.14-.48-.21-.77-.21-.29 0-.546.07-.771.212-.223.14-.396.342-.52.608a2.174 2.174 0 0 0-.183.918v.2c.002.34.063.64.185.9.124.261.298.462.523.604.226.14.483.21.771.21.292 0 .549-.07.772-.21.224-.142.397-.344.517-.606Zm-.661-2.01c.15.21.224.513.224.907v.185c0 .4-.074.705-.222.913-.146.209-.356.313-.63.313a.738.738 0 0 1-.634-.32c-.152-.213-.227-.515-.227-.906v-.205c.003-.382.08-.678.229-.886a.731.731 0 0 1 .627-.315c.274 0 .485.105.633.315Z" fill="#AFB1B8"/></svg>
